build/img/icons/logo_htmlacademy.svg

<svg width="163" height="34" viewBox="0 0 163 34" fill="none" xmlns="http://www.w3.org/2000/svg">
<path d="M1.28125 21V9.54688H2.79688V14.25H8.75V9.54688H10.2656V21H8.75V15.6016H2.79688V21H1.28125ZM15.7109 21V10.8984H11.9375V9.54688H21.0156V10.8984H17.2266V21H15.7109ZM22.5312 21V9.54688H24.8125L27.5234 17.6562C27.7734 18.4115 27.9557 18.9766 28.0703 19.3516C28.2005 18.9349 28.4036 18.3229 28.6797 17.5156L31.4219 9.54688H33.4609V21H32V11.4141L28.6719 21H27.3047L23.9922 11.25V21H22.5312ZM35.8438 21V9.54688H37.3594V19.6484H43V21H35.8438ZM46.5234 21L50.9219 9.54688H52.5547L57.2422 21H55.5156L54.1797 17.5312H49.3906L48.1328 21H46.5234ZM49.8281 16.2969H53.7109L52.5156 13.125C52.151 12.1615 51.8802 11.3698 51.7031 10.75C51.5573 11.4844 51.3516 12.2135 51.0859 12.9375L49.8281 16.2969ZM63.6875 17.9609L65.0703 18.1406C64.9193 19.0938 64.5312 19.8411 63.9062 20.3828C63.2865 20.9193 62.5234 21.1875 61.6172 21.1875C60.4818 21.1875 59.5677 20.8177 58.875 20.0781C58.1875 19.3333 57.8438 18.2682 57.8438 16.8828C57.8438 15.987 57.9922 15.2031 58.2891 14.5312C58.5859 13.8594 59.0365 13.3568 59.6406 13.0234C60.25 12.6849 60.9115 12.5156 61.625 12.5156C62.526 12.5156 63.263 12.7448 63.8359 13.2031C64.4089 13.6562 64.776 14.3021 64.9375 15.1406L63.5703 15.3516C63.4401 14.7943 63.2083 14.375 62.875 14.0938C62.5469 13.8125 62.1484 13.6719 61.6797 13.6719C60.9714 13.6719 60.3958 13.9271 59.9531 14.4375C59.5104 14.9427 59.2891 15.7448 59.2891 16.8438C59.2891 17.9583 59.5026 18.7682 59.9297 19.2734C60.3568 19.7786 60.9141 20.0312 61.6016 20.0312C62.1536 20.0312 62.6146 19.862 62.9844 19.5234C63.3542 19.1849 63.5885 18.6641 63.6875 17.9609ZM71.6875 19.9766C71.1667 20.4193 70.6641 20.7318 70.1797 20.9141C69.7005 21.0964 69.1849 21.1875 68.6328 21.1875C67.7214 21.1875 67.0208 20.9661 66.5312 20.5234C66.0417 20.0755 65.7969 19.5052 65.7969 18.8125C65.7969 18.4062 65.888 18.0365 66.0703 17.7031C66.2578 17.3646 66.5 17.0938 66.7969 16.8906C67.099 16.6875 67.4375 16.5339 67.8125 16.4297C68.0885 16.3568 68.5052 16.2865 69.0625 16.2188C70.1979 16.0833 71.0339 15.9219 71.5703 15.7344C71.5755 15.5417 71.5781 15.4193 71.5781 15.3672C71.5781 14.7943 71.4453 14.3906 71.1797 14.1562C70.8203 13.8385 70.2865 13.6797 69.5781 13.6797C68.9167 13.6797 68.4271 13.7969 68.1094 14.0312C67.7969 14.2604 67.5651 14.6693 67.4141 15.2578L66.0391 15.0703C66.1641 14.4818 66.3698 14.0078 66.6562 13.6484C66.9427 13.2839 67.3568 13.0052 67.8984 12.8125C68.4401 12.6146 69.0677 12.5156 69.7812 12.5156C70.4896 12.5156 71.0651 12.599 71.5078 12.7656C71.9505 12.9323 72.276 13.1432 72.4844 13.3984C72.6927 13.6484 72.8385 13.9661 72.9219 14.3516C72.9688 14.5911 72.9922 15.0234 72.9922 15.6484V17.5234C72.9922 18.8307 73.0208 19.6589 73.0781 20.0078C73.1406 20.3516 73.2604 20.6823 73.4375 21H71.9688C71.8229 20.7083 71.7292 20.3672 71.6875 19.9766ZM71.5703 16.8359C71.0599 17.0443 70.2943 17.2214 69.2734 17.3672C68.6953 17.4505 68.2865 17.5443 68.0469 17.6484C67.8073 17.7526 67.6224 17.9062 67.4922 18.1094C67.362 18.3073 67.2969 18.5286 67.2969 18.7734C67.2969 19.1484 67.4375 19.4609 67.7188 19.7109C68.0052 19.9609 68.4219 20.0859 68.9688 20.0859C69.5104 20.0859 69.9922 19.9688 70.4141 19.7344C70.8359 19.4948 71.1458 19.1693 71.3438 18.7578C71.4948 18.4401 71.5703 17.9714 71.5703 17.3516V16.8359ZM80.5625 21V19.9531C80.0365 20.776 79.263 21.1875 78.2422 21.1875C77.5807 21.1875 76.9714 21.0052 76.4141 20.6406C75.862 20.276 75.4323 19.7682 75.125 19.1172C74.8229 18.4609 74.6719 17.7083 74.6719 16.8594C74.6719 16.0312 74.8099 15.2812 75.0859 14.6094C75.362 13.9323 75.776 13.4141 76.3281 13.0547C76.8802 12.6953 77.4974 12.5156 78.1797 12.5156C78.6797 12.5156 79.125 12.6224 79.5156 12.8359C79.9062 13.0443 80.224 13.3177 80.4688 13.6562V9.54688H81.8672V21H80.5625ZM76.1172 16.8594C76.1172 17.9219 76.3411 18.7161 76.7891 19.2422C77.237 19.7682 77.7656 20.0312 78.375 20.0312C78.9896 20.0312 79.5104 19.7812 79.9375 19.2812C80.3698 18.776 80.5859 18.0078 80.5859 16.9766C80.5859 15.8411 80.3672 15.0078 79.9297 14.4766C79.4922 13.9453 78.9531 13.6797 78.3125 13.6797C77.6875 13.6797 77.1641 13.9349 76.7422 14.4453C76.3255 14.9557 76.1172 15.7604 76.1172 16.8594ZM89.7656 18.3281L91.2188 18.5078C90.9896 19.3568 90.5651 20.0156 89.9453 20.4844C89.3255 20.9531 88.5339 21.1875 87.5703 21.1875C86.3568 21.1875 85.3932 20.8151 84.6797 20.0703C83.9714 19.3203 83.6172 18.2708 83.6172 16.9219C83.6172 15.526 83.9766 14.4427 84.6953 13.6719C85.4141 12.901 86.3464 12.5156 87.4922 12.5156C88.6016 12.5156 89.5078 12.8932 90.2109 13.6484C90.9141 14.4036 91.2656 15.4661 91.2656 16.8359C91.2656 16.9193 91.263 17.0443 91.2578 17.2109H85.0703C85.1224 18.1224 85.3802 18.8203 85.8438 19.3047C86.3073 19.7891 86.8854 20.0312 87.5781 20.0312C88.0938 20.0312 88.5339 19.8958 88.8984 19.625C89.263 19.3542 89.5521 18.9219 89.7656 18.3281ZM85.1484 16.0547H89.7812C89.7188 15.3568 89.5417 14.8333 89.25 14.4844C88.8021 13.9427 88.2214 13.6719 87.5078 13.6719C86.862 13.6719 86.3177 13.888 85.875 14.3203C85.4375 14.7526 85.1953 15.3307 85.1484 16.0547ZM92.9922 21V12.7031H94.25V13.8672C94.5104 13.4609 94.8568 13.1354 95.2891 12.8906C95.7214 12.6406 96.2135 12.5156 96.7656 12.5156C97.3802 12.5156 97.8828 12.6432 98.2734 12.8984C98.6693 13.1536 98.9479 13.5104 99.1094 13.9688C99.7656 13 100.62 12.5156 101.672 12.5156C102.495 12.5156 103.128 12.7448 103.57 13.2031C104.013 13.6562 104.234 14.3568 104.234 15.3047V21H102.836V15.7734C102.836 15.2109 102.789 14.8073 102.695 14.5625C102.607 14.3125 102.443 14.112 102.203 13.9609C101.964 13.8099 101.682 13.7344 101.359 13.7344C100.776 13.7344 100.292 13.9297 99.9062 14.3203C99.5208 14.7057 99.3281 15.3255 99.3281 16.1797V21H97.9219V15.6094C97.9219 14.9844 97.8073 14.5156 97.5781 14.2031C97.349 13.8906 96.974 13.7344 96.4531 13.7344C96.0573 13.7344 95.6901 13.8385 95.3516 14.0469C95.0182 14.2552 94.776 14.5599 94.625 14.9609C94.474 15.362 94.3984 15.9401 94.3984 16.6953V21H92.9922ZM106.258 24.1953L106.102 22.875C106.409 22.9583 106.677 23 106.906 23C107.219 23 107.469 22.9479 107.656 22.8438C107.844 22.7396 107.997 22.5938 108.117 22.4062C108.206 22.2656 108.349 21.9167 108.547 21.3594C108.573 21.2812 108.615 21.1667 108.672 21.0156L105.523 12.7031H107.039L108.766 17.5078C108.99 18.1172 109.19 18.7578 109.367 19.4297C109.529 18.7839 109.721 18.1536 109.945 17.5391L111.719 12.7031H113.125L109.969 21.1406C109.63 22.0521 109.367 22.6797 109.18 23.0234C108.93 23.487 108.643 23.8255 108.32 24.0391C107.997 24.2578 107.612 24.3672 107.164 24.3672C106.893 24.3672 106.591 24.3099 106.258 24.1953Z" fill="#444444"/>
<path d="M149.643 0.0157537L149.5 0L136 1.40733V26.0129L149.5 34L163 26.0129V1.40733L149.643 0.0157537ZM161.234 25.0151L149.5 31.9573L137.766 25.0151V14.9293L149.451 21.8451L149.47 23.0984L141.454 18.3548L141.443 19.5801L149.489 24.3885L149.509 25.675L141.464 20.9174L141.454 22.1427L149.5 26.9511L157.624 22.1182V20.8929V16.909L161.243 14.7595L161.234 25.0151ZM161.234 13.4519L158.015 15.3319L156.533 16.2071L149.467 12.0201L149.456 13.2454L155.496 16.818L155.443 16.8495L155.313 16.9247L154.454 17.4166L149.467 14.4689L149.456 15.6942L153.392 18.0222L152.459 18.6314L152.438 18.6436L149.467 16.902L149.456 18.1273L151.403 19.2615L149.416 20.4483L137.797 13.5762L149.435 6.61831L161.234 13.4519ZM161.234 12.2266L149.44 5.31075L137.766 12.2196V2.9897L149.5 1.76442L161.234 2.9897V12.2266Z" fill="#666666"/>
</svg>

<svg width="163" height="34" fill="none" xmlns="http://www.w3.org/2000/svg"><path d="M1.281 21V9.547h1.516v4.703H8.75V9.547h1.516V21H8.75v-5.398H2.797V21H1.28zm14.43 0V10.898h-3.774V9.547h9.079v1.351h-3.79V21h-1.515zm6.82 0V9.547h2.282l2.71 8.11c.25.755.433 1.32.547 1.695.13-.417.334-1.03.61-1.836l2.742-7.97h2.039V21H32v-9.586L28.672 21h-1.367l-3.313-9.75V21h-1.46zm13.313 0V9.547h1.515v10.101H43V21h-7.156zm10.68 0l4.398-11.453h1.633L57.242 21h-1.726l-1.336-3.469h-4.79L48.134 21h-1.61zm3.304-4.703h3.883l-1.195-3.172a31.339 31.339 0 01-.813-2.375 14.588 14.588 0 01-.617 2.188l-1.258 3.359zm13.86 1.664l1.382.18c-.15.953-.539 1.7-1.164 2.242-.62.536-1.383.805-2.289.805-1.135 0-2.05-.37-2.742-1.11-.688-.745-1.031-1.81-1.031-3.195 0-.896.148-1.68.445-2.352.297-.672.747-1.174 1.352-1.508a4.02 4.02 0 011.984-.507c.901 0 1.638.229 2.21.687.574.453.941 1.1 1.102 1.938l-1.367.21c-.13-.557-.362-.976-.695-1.257-.328-.281-.727-.422-1.195-.422-.709 0-1.284.255-1.727.765-.443.506-.664 1.308-.664 2.407 0 1.114.214 1.924.64 2.43.428.505.985.757 1.673.757.552 0 1.013-.169 1.382-.508.37-.338.605-.859.703-1.562zm8 2.016c-.521.442-1.024.755-1.508.937-.48.182-.995.273-1.547.273-.912 0-1.612-.22-2.102-.664-.49-.447-.734-1.018-.734-1.71 0-.407.091-.776.273-1.11.188-.338.43-.61.727-.812.302-.203.64-.357 1.016-.461.275-.073.692-.143 1.25-.211 1.135-.136 1.97-.297 2.507-.485.006-.192.008-.315.008-.367 0-.573-.133-.976-.398-1.21-.36-.319-.894-.477-1.602-.477-.661 0-1.15.117-1.469.351-.312.23-.544.638-.695 1.227l-1.375-.188c.125-.588.33-1.062.617-1.422.287-.364.7-.643 1.242-.835.542-.198 1.17-.297 1.883-.297.709 0 1.284.083 1.727.25.443.166.768.377.976.632.209.25.355.568.438.954.047.24.07.671.07 1.296v1.875c0 1.308.029 2.136.086 2.485.063.344.182.674.36.992h-1.47a2.981 2.981 0 01-.28-1.023zm-.118-3.141c-.51.208-1.276.385-2.297.531-.578.084-.986.177-1.226.281a1.214 1.214 0 00-.75 1.125c0 .375.14.688.422.938.286.25.703.375 1.25.375.541 0 1.023-.117 1.445-.352.422-.24.732-.565.93-.976.15-.318.226-.787.226-1.406v-.516zM80.563 21v-1.047c-.526.823-1.3 1.235-2.32 1.235a3.278 3.278 0 01-1.829-.547c-.552-.365-.982-.873-1.289-1.524-.302-.656-.453-1.409-.453-2.258 0-.828.138-1.578.414-2.25.276-.677.69-1.195 1.242-1.554.552-.36 1.17-.54 1.852-.54.5 0 .945.107 1.336.32.39.21.708.483.953.821v-4.11h1.398V21h-1.305zm-4.446-4.14c0 1.062.224 1.856.672 2.382.448.526.977.79 1.586.79.615 0 1.135-.25 1.563-.75.432-.506.648-1.274.648-2.305 0-1.136-.219-1.97-.656-2.5-.438-.532-.977-.797-1.618-.797-.624 0-1.148.255-1.57.765-.416.51-.625 1.315-.625 2.414zm13.649 1.468l1.453.18c-.23.849-.654 1.508-1.274 1.976-.62.47-1.411.703-2.375.703-1.213 0-2.177-.372-2.89-1.117-.709-.75-1.063-1.8-1.063-3.148 0-1.396.36-2.48 1.078-3.25.72-.771 1.651-1.156 2.797-1.156 1.11 0 2.016.377 2.719 1.132.703.756 1.055 1.818 1.055 3.188 0 .083-.003.208-.008.375H85.07c.052.911.31 1.61.774 2.094.463.484 1.041.726 1.734.726.516 0 .956-.135 1.32-.406.365-.27.654-.703.868-1.297zm-4.618-2.273h4.633c-.062-.698-.24-1.222-.531-1.57-.448-.542-1.029-.813-1.742-.813-.646 0-1.19.216-1.633.648-.438.433-.68 1.01-.727 1.735zM92.992 21v-8.297h1.258v1.164c.26-.406.607-.732 1.04-.976.431-.25.923-.375 1.476-.375.614 0 1.117.127 1.507.382.396.256.675.612.836 1.07.657-.968 1.511-1.452 2.563-1.452.823 0 1.456.229 1.898.687.443.453.664 1.154.664 2.102V21h-1.398v-5.227c0-.562-.047-.966-.141-1.21a1.15 1.15 0 00-.492-.602 1.548 1.548 0 00-.844-.227c-.583 0-1.067.196-1.453.586-.385.386-.578 1.005-.578 1.86V21h-1.406v-5.39c0-.626-.115-1.094-.344-1.407-.229-.312-.604-.469-1.125-.469-.396 0-.763.104-1.101.313a1.778 1.778 0 00-.727.914c-.151.401-.227.98-.227 1.734V21h-1.406zm13.266 3.195l-.156-1.32c.307.083.575.125.804.125.313 0 .563-.052.75-.156.188-.104.341-.25.461-.438.089-.14.232-.49.43-1.047.026-.078.068-.192.125-.343l-3.149-8.313h1.516l1.727 4.805c.224.61.424 1.25.601 1.922a18.98 18.98 0 01.578-1.89l1.774-4.837h1.406l-3.156 8.438c-.339.911-.602 1.539-.789 1.882-.25.464-.537.803-.86 1.016-.323.219-.708.328-1.156.328-.271 0-.573-.057-.906-.172z" fill="#444"/><path d="M149.643.016L149.5 0 136 1.407v24.606L149.5 34l13.5-7.987V1.407L149.643.016zm11.591 25l-11.734 6.94-11.734-6.942V14.93l11.685 6.916.019 1.253-8.016-4.743-.011 1.225 8.046 4.809.02 1.286-8.045-4.758-.01 1.226 8.046 4.808 8.124-4.833V16.91l3.619-2.15-.009 10.256zm0-11.564l-3.219 1.88-1.482.875-7.066-4.187-.011 1.225 6.04 3.573-.053.031-.13.076-.859.492-4.987-2.948-.011 1.225 3.936 2.328-.933.61-.021.012-2.971-1.742-.011 1.225 1.947 1.135-1.987 1.186-11.619-6.872 11.638-6.958 11.799 6.834zm0-1.225L149.44 5.31l-11.674 6.909V2.99L149.5 1.764l11.734 1.226v9.237z" fill="#666"/></svg>
